src/assets/dark/Comments.svg

<svg width="270" height="180" viewBox="0 0 270 180" fill="none" xmlns="http://www.w3.org/2000/svg">
<ellipse cx="134.637" cy="89.9982" rx="134.637" ry="89.9982" fill="#131143"/>
<path fill-rule="evenodd" clip-rule="evenodd" d="M219.489 152.605L221.289 151.575L219.449 150.615L218.429 148.815L217.459 150.645L215.659 151.675L217.499 152.645L218.529 154.445L219.489 152.605Z" fill="#403D85"/>
<path d="M177.356 23.9141C177.836 23.9141 177.836 23.1641 177.356 23.1641C176.866 23.1641 176.866 23.9141 177.356 23.9141Z" fill="#403D85"/>
<path d="M166.266 32.9219C166.746 32.9219 166.746 32.1719 166.266 32.1719C165.786 32.1719 165.786 32.9219 166.266 32.9219Z" fill="#403D85"/>
<path d="M189.136 37.3125C189.616 37.3125 189.616 36.5625 189.136 36.5625C188.656 36.5625 188.656 37.3125 189.136 37.3125Z" fill="#403D85"/>
<path d="M178.046 36.8516C178.526 36.8516 178.526 36.1016 178.046 36.1016C177.566 36.1016 177.566 36.8516 178.046 36.8516Z" fill="#403D85"/>
<path d="M208.776 48.4023C209.256 48.4023 209.256 47.6523 208.776 47.6523C208.286 47.6523 208.286 48.4023 208.776 48.4023Z" fill="#403D85"/>
<path d="M208.536 38.4727C209.016 38.4727 209.016 37.7227 208.536 37.7227C208.056 37.7227 208.056 38.4727 208.536 38.4727Z" fill="#403D85"/>
<path d="M199.526 33.3828C200.006 33.3828 200.006 32.6328 199.526 32.6328C199.046 32.6328 199.046 33.3828 199.526 33.3828Z" fill="#403D85"/>
<path d="M218.476 52.332C218.956 52.332 218.956 51.582 218.476 51.582C217.996 51.582 217.986 52.332 218.476 52.332Z" fill="#403D85"/>
<path fill-rule="evenodd" clip-rule="evenodd" d="M168.806 23.313L169.716 23.833L168.786 24.313L168.266 25.233L167.776 24.303L166.866 23.773L167.796 23.293L168.316 22.373L168.806 23.313Z" fill="#403D85"/>
<path fill-rule="evenodd" clip-rule="evenodd" d="M215.796 43.6331L216.706 44.1531L215.776 44.6431L215.256 45.5531L214.766 44.6231L213.856 44.1031L214.786 43.6131L215.306 42.7031L215.796 43.6331Z" fill="#403D85"/>
<path fill-rule="evenodd" clip-rule="evenodd" d="M179.516 42.0416L180.436 42.5616L179.496 43.0516L178.976 43.9616L178.486 43.0316L177.576 42.5116L178.506 42.0216L179.026 41.1016L179.516 42.0416Z" fill="#403D85"/>
<path fill-rule="evenodd" clip-rule="evenodd" d="M184.926 12.7228L186.726 13.7528L184.886 14.7128L183.866 16.5128L182.896 14.6828L181.096 13.6528L182.936 12.6828L183.966 10.8828L184.926 12.7228Z" fill="#403D85"/>
<path d="M240.1 91.8359C240.58 91.8359 240.58 92.5859 240.1 92.5859C239.61 92.5859 239.61 91.8359 240.1 91.8359Z" fill="#403D85"/>
<path d="M229.01 82.8281C229.49 82.8281 229.49 83.5781 229.01 83.5781C228.53 83.5781 228.53 82.8281 229.01 82.8281Z" fill="#403D85"/>
<path d="M251.88 78.4375C252.36 78.4375 252.36 79.1875 251.88 79.1875C251.4 79.1875 251.4 78.4375 251.88 78.4375Z" fill="#403D85"/>
<path d="M240.79 78.8984C241.27 78.8984 241.27 79.6484 240.79 79.6484C240.31 79.6484 240.31 78.8984 240.79 78.8984Z" fill="#403D85"/>
<path fill-rule="evenodd" clip-rule="evenodd" d="M231.55 92.437L232.46 91.917L231.53 91.437L231.01 90.517L230.52 91.447L229.61 91.977L230.54 92.457L231.06 93.377L231.55 92.437Z" fill="#403D85"/>
<path fill-rule="evenodd" clip-rule="evenodd" d="M242.26 73.7084L243.18 73.1884L242.24 72.6984L241.72 71.7884L241.23 72.7184L240.32 73.2384L241.25 73.7284L241.77 74.6484L242.26 73.7084Z" fill="#403D85"/>
<path fill-rule="evenodd" clip-rule="evenodd" d="M247.67 103.027L249.47 101.997L247.63 101.037L246.61 99.2372L245.64 101.067L243.84 102.097L245.68 103.067L246.71 104.867L247.67 103.027Z" fill="#403D85"/>
<path d="M26.0877 98.0312C26.5677 98.0312 26.5677 97.2812 26.0877 97.2812C25.5977 97.2812 25.5977 98.0312 26.0877 98.0312Z" fill="#403D85"/>
<path d="M14.9977 107.039C15.4777 107.039 15.4777 106.289 14.9977 106.289C14.5177 106.289 14.5177 107.039 14.9977 107.039Z" fill="#403D85"/>
<path d="M37.8676 111.43C38.3476 111.43 38.3476 110.68 37.8676 110.68C37.3876 110.68 37.3876 111.43 37.8676 111.43Z" fill="#403D85"/>
<path d="M26.7777 110.969C27.2577 110.969 27.2577 110.219 26.7777 110.219C26.2977 110.219 26.2977 110.969 26.7777 110.969Z" fill="#403D85"/>
<path fill-rule="evenodd" clip-rule="evenodd" d="M17.5377 97.4302L18.4477 97.9502L17.5177 98.4302L16.9977 99.3502L16.5077 98.4202L15.5977 97.8902L16.5277 97.4102L17.0477 96.4902L17.5377 97.4302Z" fill="#403D85"/>
<path fill-rule="evenodd" clip-rule="evenodd" d="M28.2476 116.159L29.1676 116.679L28.2276 117.169L27.7076 118.079L27.2176 117.149L26.3076 116.629L27.2376 116.139L27.7576 115.219L28.2476 116.159Z" fill="#403D85"/>
<path fill-rule="evenodd" clip-rule="evenodd" d="M33.6576 86.84L35.4576 87.87L33.6176 88.83L32.5976 90.63L31.6276 88.8L29.8276 87.77L31.6676 86.8L32.6976 85L33.6576 86.84Z" fill="#403D85"/>
<path d="M98.0506 147.129C98.5306 147.129 98.5306 146.379 98.0506 146.379C97.5606 146.379 97.5606 147.129 98.0506 147.129Z" fill="#403D85"/>
<path d="M86.9606 156.141C87.4406 156.141 87.4406 155.391 86.9606 155.391C86.4806 155.391 86.4806 156.141 86.9606 156.141Z" fill="#403D85"/>
<path d="M109.83 160.529C110.31 160.529 110.31 159.779 109.83 159.779C109.35 159.779 109.35 160.529 109.83 160.529Z" fill="#403D85"/>
<path d="M98.7406 160.07C99.2206 160.07 99.2206 159.32 98.7406 159.32C98.2606 159.32 98.2606 160.07 98.7406 160.07Z" fill="#403D85"/>
<path d="M129.471 171.619C129.951 171.619 129.951 170.869 129.471 170.869C128.981 170.869 128.981 171.619 129.471 171.619Z" fill="#403D85"/>
<path d="M129.231 161.689C129.711 161.689 129.711 160.939 129.231 160.939C128.751 160.939 128.751 161.689 129.231 161.689Z" fill="#403D85"/>
<path d="M120.221 156.6C120.701 156.6 120.701 155.85 120.221 155.85C119.741 155.85 119.741 156.6 120.221 156.6Z" fill="#403D85"/>
<path d="M139.171 175.551C139.651 175.551 139.651 174.801 139.171 174.801C138.691 174.801 138.681 175.551 139.171 175.551Z" fill="#403D85"/>
<path fill-rule="evenodd" clip-rule="evenodd" d="M89.5005 146.53L90.4106 147.05L89.4806 147.53L88.9605 148.45L88.4706 147.52L87.5605 146.99L88.4905 146.51L89.0106 145.59L89.5005 146.53Z" fill="#403D85"/>
<path fill-rule="evenodd" clip-rule="evenodd" d="M136.491 166.85L137.401 167.37L136.471 167.86L135.951 168.77L135.461 167.84L134.551 167.32L135.481 166.83L136.001 165.92L136.491 166.85Z" fill="#403D85"/>
<path fill-rule="evenodd" clip-rule="evenodd" d="M100.211 165.26L101.131 165.78L100.191 166.27L99.6705 167.18L99.1805 166.25L98.2705 165.73L99.2005 165.24L99.7205 164.32L100.211 165.26Z" fill="#403D85"/>
<path fill-rule="evenodd" clip-rule="evenodd" d="M59.4677 150.84L61.2677 151.87L59.4277 152.83L58.4077 154.63L57.4377 152.8L55.6377 151.77L57.4777 150.8L58.5077 149L59.4677 150.84Z" fill="#403D85"/>
<path d="M50.0506 33.5391C50.5306 33.5391 50.5306 32.7891 50.0506 32.7891C49.5606 32.7891 49.5606 33.5391 50.0506 33.5391Z" fill="#403D85"/>
<path d="M38.9606 42.5508C39.4406 42.5508 39.4406 41.8008 38.9606 41.8008C38.4806 41.8008 38.4806 42.5508 38.9606 42.5508Z" fill="#403D85"/>
<path d="M61.8305 46.9395C62.3105 46.9395 62.3105 46.1895 61.8305 46.1895C61.3505 46.1895 61.3505 46.9395 61.8305 46.9395Z" fill="#403D85"/>
<path d="M50.7406 46.4805C51.2206 46.4805 51.2206 45.7305 50.7406 45.7305C50.2606 45.7305 50.2606 46.4805 50.7406 46.4805Z" fill="#403D85"/>
<path d="M81.4705 58.0293C81.9505 58.0293 81.9505 57.2793 81.4705 57.2793C80.9805 57.2793 80.9805 58.0293 81.4705 58.0293Z" fill="#403D85"/>
<path d="M81.2306 48.0996C81.7106 48.0996 81.7106 47.3496 81.2306 47.3496C80.7506 47.3496 80.7506 48.0996 81.2306 48.0996Z" fill="#403D85"/>
<path d="M72.2206 43.0098C72.7006 43.0098 72.7006 42.2598 72.2206 42.2598C71.7406 42.2598 71.7406 43.0098 72.2206 43.0098Z" fill="#403D85"/>
<path d="M91.1706 61.9609C91.6506 61.9609 91.6506 61.2109 91.1706 61.2109C90.6906 61.2109 90.6806 61.9609 91.1706 61.9609Z" fill="#403D85"/>
<path fill-rule="evenodd" clip-rule="evenodd" d="M41.5005 32.94L42.4106 33.46L41.4806 33.94L40.9605 34.86L40.4706 33.93L39.5605 33.4L40.4905 32.92L41.0106 32L41.5005 32.94Z" fill="#403D85"/>
<path fill-rule="evenodd" clip-rule="evenodd" d="M88.4905 53.2601L89.4005 53.7801L88.4705 54.2701L87.9505 55.1801L87.4605 54.2501L86.5505 53.7301L87.4805 53.2401L88.0005 52.3301L88.4905 53.2601Z" fill="#403D85"/>
<path fill-rule="evenodd" clip-rule="evenodd" d="M52.2105 51.6705L53.1305 52.1905L52.1905 52.6805L51.6705 53.5905L51.1805 52.6605L50.2705 52.1405L51.2005 51.6505L51.7205 50.7305L52.2105 51.6705Z" fill="#403D85"/>
<circle cx="222.47" cy="32.5319" r="1.48701" fill="url(#paint0_linear)" fill-opacity="0.05"/>
<circle cx="134.092" cy="35.5065" r="1.48701" fill="url(#paint1_linear)" fill-opacity="0.05"/>
<circle cx="183.263" cy="159.487" r="1.48701" fill="url(#paint2_linear)" fill-opacity="0.05"/>
<circle cx="231.624" cy="145.202" r="1.48701" fill="url(#paint3_linear)" fill-opacity="0.05"/>
<circle cx="236.404" cy="53.819" r="1.48701" fill="url(#paint4_linear)" fill-opacity="0.05"/>
<circle cx="43.1247" cy="140.487" r="1.48701" fill="url(#paint5_linear)" fill-opacity="0.05"/>
<circle cx="20.1247" cy="67.487" r="1.48701" fill="url(#paint6_linear)" fill-opacity="0.05"/>
<circle cx="142.386" cy="163.495" r="1.48701" fill="url(#paint7_linear)" fill-opacity="0.05"/>
<circle opacity="0.8" cx="111.991" cy="49.0808" r="1.48701" fill="#403D85"/>
<circle opacity="0.8" cx="70.6423" cy="131.352" r="1.48701" fill="#403D85"/>
<circle opacity="0.8" cx="180.381" cy="143.716" r="1.48701" fill="#403D85"/>
<circle opacity="0.8" cx="230.137" cy="120.003" r="1.48701" fill="#403D85"/>
<circle opacity="0.8" cx="109.324" cy="167.686" r="0.686385" fill="#403D85"/>
<circle opacity="0.8" cx="241.996" cy="65.5106" r="0.686385" fill="#403D85"/>
<circle opacity="0.8" cx="87.287" cy="23.6551" r="0.686385" fill="#403D85"/>
<circle opacity="0.8" cx="184.627" cy="74.8094" r="0.686385" fill="#403D85"/>
<circle opacity="0.8" cx="64.2977" cy="104.868" r="0.686385" fill="#403D85"/>
<circle opacity="0.8" cx="166.324" cy="168.163" r="0.686385" fill="#403D85"/>
<path d="M178.296 71.1258C173.814 65.6178 167.727 61.2672 160.035 58.0743C152.343 54.8818 143.94 53.2852 134.828 53.2852C128.031 53.2852 121.533 54.2279 115.335 56.1137C109.136 57.9994 103.796 60.5481 99.3145 63.7595C94.8324 66.9712 91.267 70.7896 88.6152 75.2144C85.9634 79.6394 84.6377 84.2796 84.6377 89.1343C84.6377 94.7355 86.3269 99.9839 89.7068 104.876C93.0867 109.767 97.7073 113.876 103.571 117.199C103.16 118.692 102.674 120.112 102.114 121.455C101.554 122.8 101.05 123.903 100.602 124.761C100.153 125.62 99.5468 126.573 98.7807 127.618C98.0157 128.664 97.4369 129.402 97.0447 129.83C96.6529 130.26 96.0088 130.971 95.112 131.959C94.2164 132.949 93.6372 133.593 93.3761 133.892C93.3382 133.91 93.1891 134.079 92.9278 134.396C92.6666 134.713 92.5356 134.871 92.5356 134.871L92.1995 135.375C92.0125 135.656 91.9285 135.833 91.947 135.906C91.9658 135.979 91.9285 136.167 91.8351 136.465C91.7416 136.765 91.7512 136.989 91.863 137.139V137.195C92.0131 137.867 92.3398 138.408 92.8436 138.819C93.3474 139.229 93.9176 139.397 94.5521 139.321C96.98 139.023 99.1083 138.614 100.938 138.09C110.722 135.587 119.311 131.07 126.705 124.534C129.505 124.832 132.213 124.982 134.827 124.982C143.939 124.982 152.341 123.385 160.034 120.191C167.726 116.999 173.813 112.648 178.294 107.141C182.776 101.635 185.016 95.6317 185.016 89.1341C185.017 82.6363 182.776 76.6329 178.296 71.1258Z" fill="url(#paint8_linear)"/>
<path fill-rule="evenodd" clip-rule="evenodd" d="M110.638 77C110.638 76.4477 111.085 76 111.638 76H134.638C135.19 76 135.638 76.4477 135.638 77C135.638 77.5523 135.19 78 134.638 78H111.638C111.085 78 110.638 77.5523 110.638 77Z" fill="white" fill-opacity="0.67"/>
<path fill-rule="evenodd" clip-rule="evenodd" d="M110.638 85C110.638 84.4477 111.085 84 111.638 84H158.638C159.19 84 159.638 84.4477 159.638 85C159.638 85.5523 159.19 86 158.638 86H111.638C111.085 86 110.638 85.5523 110.638 85Z" fill="white" fill-opacity="0.67"/>
<path fill-rule="evenodd" clip-rule="evenodd" d="M110.638 101C110.638 100.448 111.085 100 111.638 100H158.638C159.19 100 159.638 100.448 159.638 101C159.638 101.552 159.19 102 158.638 102H111.638C111.085 102 110.638 101.552 110.638 101Z" fill="white" fill-opacity="0.67"/>
<path fill-rule="evenodd" clip-rule="evenodd" d="M110.638 93C110.638 92.4477 111.085 92 111.638 92H158.638C159.19 92 159.638 92.4477 159.638 93C159.638 93.5523 159.19 94 158.638 94H111.638C111.085 94 110.638 93.5523 110.638 93Z" fill="white" fill-opacity="0.67"/>
<defs>
<linearGradient id="paint0_linear" x1="222.47" y1="34.0189" x2="222.47" y2="31.0449" gradientUnits="userSpaceOnUse">
<stop offset="0.000490735" stop-color="#6050B0"/>
<stop offset="1" stop-color="#351C75"/>
</linearGradient>
<linearGradient id="paint1_linear" x1="134.092" y1="36.9935" x2="134.092" y2="34.0195" gradientUnits="userSpaceOnUse">
<stop offset="0.000490735" stop-color="#6050B0"/>
<stop offset="1" stop-color="#351C75"/>
</linearGradient>
<linearGradient id="paint2_linear" x1="183.263" y1="160.974" x2="183.263" y2="158" gradientUnits="userSpaceOnUse">
<stop offset="0.000490735" stop-color="#6050B0"/>
<stop offset="1" stop-color="#351C75"/>
</linearGradient>
<linearGradient id="paint3_linear" x1="231.624" y1="146.689" x2="231.624" y2="143.715" gradientUnits="userSpaceOnUse">
<stop offset="0.000490735" stop-color="#6050B0"/>
<stop offset="1" stop-color="#351C75"/>
</linearGradient>
<linearGradient id="paint4_linear" x1="236.404" y1="55.306" x2="236.404" y2="52.332" gradientUnits="userSpaceOnUse">
<stop offset="0.000490735" stop-color="#6050B0"/>
<stop offset="1" stop-color="#351C75"/>
</linearGradient>
<linearGradient id="paint5_linear" x1="43.1247" y1="141.974" x2="43.1247" y2="139" gradientUnits="userSpaceOnUse">
<stop offset="0.000490735" stop-color="#6050B0"/>
<stop offset="1" stop-color="#351C75"/>
</linearGradient>
<linearGradient id="paint6_linear" x1="20.1247" y1="68.974" x2="20.1247" y2="66" gradientUnits="userSpaceOnUse">
<stop offset="0.000490735" stop-color="#6050B0"/>
<stop offset="1" stop-color="#351C75"/>
</linearGradient>
<linearGradient id="paint7_linear" x1="142.386" y1="164.982" x2="142.386" y2="162.008" gradientUnits="userSpaceOnUse">
<stop offset="0.000490735" stop-color="#6050B0"/>
<stop offset="1" stop-color="#351C75"/>
</linearGradient>
<linearGradient id="paint8_linear" x1="213.138" y1="40.4995" x2="71.1377" y2="155.499" gradientUnits="userSpaceOnUse">
<stop offset="0.000490735" stop-color="#1E1B6D"/>
<stop offset="1" stop-color="#373582"/>
</linearGradient>
</defs>
</svg>

<svg width="270" height="180" fill="none" xmlns="http://www.w3.org/2000/svg"><ellipse cx="134.637" cy="89.998" rx="134.637" ry="89.998" fill="#131143"/><path fill-rule="evenodd" clip-rule="evenodd" d="M219.489 152.605l1.8-1.03-1.84-.96-1.02-1.8-.97 1.83-1.8 1.03 1.84.97 1.03 1.8.96-1.84z" fill="#403D85"/><path d="M177.356 23.914c.48 0 .48-.75 0-.75-.49 0-.49.75 0 .75zM166.266 32.922c.48 0 .48-.75 0-.75s-.48.75 0 .75zM189.136 37.313c.48 0 .48-.75 0-.75s-.48.75 0 .75zM178.046 36.852c.48 0 .48-.75 0-.75s-.48.75 0 .75zM208.776 48.402c.48 0 .48-.75 0-.75-.49 0-.49.75 0 .75zM208.536 38.473c.48 0 .48-.75 0-.75s-.48.75 0 .75zM199.526 33.383c.48 0 .48-.75 0-.75s-.48.75 0 .75zM218.476 52.332c.48 0 .48-.75 0-.75s-.49.75 0 .75z" fill="#403D85"/><path fill-rule="evenodd" clip-rule="evenodd" d="M168.806 23.313l.91.52-.93.48-.52.92-.49-.93-.91-.53.93-.48.52-.92.49.94zM215.796 43.633l.91.52-.93.49-.52.91-.49-.93-.91-.52.93-.49.52-.91.49.93zM179.516 42.042l.92.52-.94.49-.52.91-.49-.93-.91-.52.93-.49.52-.92.49.94zM184.926 12.723l1.8 1.03-1.84.96-1.02 1.8-.97-1.83-1.8-1.03 1.84-.97 1.03-1.8.96 1.84z" fill="#403D85"/><path d="M240.1 91.836c.48 0 .48.75 0 .75-.49 0-.49-.75 0-.75zM229.01 82.828c.48 0 .48.75 0 .75s-.48-.75 0-.75zM251.88 78.438c.48 0 .48.75 0 .75s-.48-.75 0-.75zM240.79 78.898c.48 0 .48.75 0 .75s-.48-.75 0-.75z" fill="#403D85"/><path fill-rule="evenodd" clip-rule="evenodd" d="M231.55 92.437l.91-.52-.93-.48-.52-.92-.49.93-.91.53.93.48.52.92.49-.94zM242.26 73.708l.92-.52-.94-.49-.52-.91-.49.93-.91.52.93.49.52.92.49-.94zM247.67 103.027l1.8-1.03-1.84-.96-1.02-1.8-.97 1.83-1.8 1.03 1.84.97 1.03 1.8.96-1.84z" fill="#403D85"/><path d="M26.088 98.031c.48 0 .48-.75 0-.75-.49 0-.49.75 0 .75zM14.998 107.039c.48 0 .48-.75 0-.75s-.48.75 0 .75zM37.868 111.43c.48 0 .48-.75 0-.75s-.48.75 0 .75zM26.778 110.969c.48 0 .48-.75 0-.75s-.48.75 0 .75z" fill="#403D85"/><path fill-rule="evenodd" clip-rule="evenodd" d="M17.538 97.43l.91.52-.93.48-.52.92-.49-.93-.91-.53.93-.48.52-.92.49.94zM28.248 116.159l.92.52-.94.49-.52.91-.49-.93-.91-.52.93-.49.52-.92.49.94zM33.658 86.84l1.8 1.03-1.84.96-1.02 1.8-.97-1.83-1.8-1.03 1.84-.97 1.03-1.8.96 1.84z" fill="#403D85"/><path d="M98.05 147.129c.48 0 .48-.75 0-.75-.49 0-.49.75 0 .75zM86.96 156.141c.48 0 .48-.75 0-.75s-.48.75 0 .75zM109.83 160.529c.48 0 .48-.75 0-.75s-.48.75 0 .75zM98.74 160.07c.48 0 .48-.75 0-.75s-.48.75 0 .75zM129.471 171.619c.48 0 .48-.75 0-.75-.49 0-.49.75 0 .75zM129.231 161.689c.48 0 .48-.75 0-.75s-.48.75 0 .75zM120.221 156.6c.48 0 .48-.75 0-.75s-.48.75 0 .75zM139.171 175.551c.48 0 .48-.75 0-.75s-.49.75 0 .75z" fill="#403D85"/><path fill-rule="evenodd" clip-rule="evenodd" d="M89.5 146.53l.91.52-.93.48-.52.92-.49-.93-.91-.53.93-.48.52-.92.49.94zM136.491 166.85l.91.52-.93.49-.52.91-.49-.93-.91-.52.93-.49.52-.91.49.93zM100.211 165.26l.92.52-.94.49-.52.91-.49-.93-.91-.52.93-.49.52-.92.49.94zM59.468 150.84l1.8 1.03-1.84.96-1.02 1.8-.97-1.83-1.8-1.03 1.84-.97 1.03-1.8.96 1.84z" fill="#403D85"/><path d="M50.05 33.54c.48 0 .48-.75 0-.75-.49 0-.49.75 0 .75zM38.96 42.55c.48 0 .48-.75 0-.75s-.48.75 0 .75zM61.83 46.94c.48 0 .48-.75 0-.75s-.48.75 0 .75zM50.74 46.48c.48 0 .48-.75 0-.75s-.48.75 0 .75zM81.47 58.03c.48 0 .48-.75 0-.75-.49 0-.49.75 0 .75zM81.23 48.1c.48 0 .48-.75 0-.75s-.48.75 0 .75zM72.22 43.01c.48 0 .48-.75 0-.75s-.48.75 0 .75zM91.17 61.96c.48 0 .48-.75 0-.75s-.49.75 0 .75z" fill="#403D85"/><path fill-rule="evenodd" clip-rule="evenodd" d="M41.5 32.94l.91.52-.93.48-.52.92-.49-.93-.91-.53.93-.48.52-.92.49.94zM88.49 53.26l.91.52-.93.49-.52.91-.49-.93-.91-.52.93-.49.52-.91.49.93zM52.21 51.67l.92.52-.94.49-.52.91-.49-.93-.91-.52.93-.49.52-.92.49.94z" fill="#403D85"/><circle cx="222.47" cy="32.532" r="1.487" fill="url(#paint0_linear)" fill-opacity=".05"/><circle cx="134.092" cy="35.507" r="1.487" fill="url(#paint1_linear)" fill-opacity=".05"/><circle cx="183.263" cy="159.487" r="1.487" fill="url(#paint2_linear)" fill-opacity=".05"/><circle cx="231.624" cy="145.202" r="1.487" fill="url(#paint3_linear)" fill-opacity=".05"/><circle cx="236.404" cy="53.819" r="1.487" fill="url(#paint4_linear)" fill-opacity=".05"/><circle cx="43.125" cy="140.487" r="1.487" fill="url(#paint5_linear)" fill-opacity=".05"/><circle cx="20.125" cy="67.487" r="1.487" fill="url(#paint6_linear)" fill-opacity=".05"/><circle cx="142.386" cy="163.495" r="1.487" fill="url(#paint7_linear)" fill-opacity=".05"/><circle opacity=".8" cx="111.991" cy="49.081" r="1.487" fill="#403D85"/><circle opacity=".8" cx="70.642" cy="131.352" r="1.487" fill="#403D85"/><circle opacity=".8" cx="180.381" cy="143.716" r="1.487" fill="#403D85"/><circle opacity=".8" cx="230.137" cy="120.003" r="1.487" fill="#403D85"/><circle opacity=".8" cx="109.324" cy="167.686" r=".686" fill="#403D85"/><circle opacity=".8" cx="241.996" cy="65.511" r=".686" fill="#403D85"/><circle opacity=".8" cx="87.287" cy="23.655" r=".686" fill="#403D85"/><circle opacity=".8" cx="184.627" cy="74.809" r=".686" fill="#403D85"/><circle opacity=".8" cx="64.298" cy="104.868" r=".686" fill="#403D85"/><circle opacity=".8" cx="166.324" cy="168.163" r=".686" fill="#403D85"/><path d="M178.296 71.126c-4.482-5.508-10.569-9.859-18.261-13.052-7.692-3.192-16.095-4.789-25.207-4.789-6.797 0-13.295.943-19.493 2.829-6.199 1.885-11.539 4.434-16.02 7.646-4.483 3.211-8.048 7.03-10.7 11.454-2.652 4.425-3.977 9.066-3.977 13.92 0 5.602 1.689 10.85 5.069 15.742 3.38 4.891 8 9 13.864 12.323a35.613 35.613 0 01-1.457 4.256c-.56 1.345-1.064 2.448-1.512 3.306-.449.859-1.055 1.812-1.821 2.857-.765 1.046-1.344 1.784-1.736 2.212-.392.43-1.036 1.141-1.933 2.129-.896.99-1.475 1.634-1.736 1.933-.038.018-.187.187-.448.504l-.392.475-.337.504c-.186.281-.27.458-.252.531.019.073-.019.261-.112.559-.093.3-.084.524.028.674v.056c.15.672.477 1.213.98 1.624.504.41 1.075.578 1.71.502 2.427-.298 4.555-.707 6.385-1.231 9.784-2.503 18.373-7.02 25.767-13.556 2.8.298 5.508.448 8.122.448 9.112 0 17.514-1.597 25.207-4.791 7.692-3.192 13.779-7.543 18.26-13.05 4.482-5.506 6.722-11.51 6.722-18.007.001-6.498-2.24-12.501-6.72-18.008z" fill="url(#paint8_linear)"/><path fill-rule="evenodd" clip-rule="evenodd" d="M110.638 77a1 1 0 011-1h23a1 1 0 010 2h-23a1 1 0 01-1-1zM110.638 85a1 1 0 011-1h47a1 1 0 010 2h-47a1 1 0 01-1-1zM110.638 101a1 1 0 011-1h47a1 1 0 010 2h-47a1 1 0 01-1-1zM110.638 93a1 1 0 011-1h47a1 1 0 010 2h-47a1 1 0 01-1-1z" fill="#fff" fill-opacity=".67"/><defs><linearGradient id="paint0_linear" x1="222.47" y1="34.019" x2="222.47" y2="31.045" gradientUnits="userSpaceOnUse"><stop offset="0" stop-color="#6050B0"/><stop offset="1" stop-color="#351C75"/></linearGradient><linearGradient id="paint1_linear" x1="134.092" y1="36.993" x2="134.092" y2="34.02" gradientUnits="userSpaceOnUse"><stop offset="0" stop-color="#6050B0"/><stop offset="1" stop-color="#351C75"/></linearGradient><linearGradient id="paint2_linear" x1="183.263" y1="160.974" x2="183.263" y2="158" gradientUnits="userSpaceOnUse"><stop offset="0" stop-color="#6050B0"/><stop offset="1" stop-color="#351C75"/></linearGradient><linearGradient id="paint3_linear" x1="231.624" y1="146.689" x2="231.624" y2="143.715" gradientUnits="userSpaceOnUse"><stop offset="0" stop-color="#6050B0"/><stop offset="1" stop-color="#351C75"/></linearGradient><linearGradient id="paint4_linear" x1="236.404" y1="55.306" x2="236.404" y2="52.332" gradientUnits="userSpaceOnUse"><stop offset="0" stop-color="#6050B0"/><stop offset="1" stop-color="#351C75"/></linearGradient><linearGradient id="paint5_linear" x1="43.125" y1="141.974" x2="43.125" y2="139" gradientUnits="userSpaceOnUse"><stop offset="0" stop-color="#6050B0"/><stop offset="1" stop-color="#351C75"/></linearGradient><linearGradient id="paint6_linear" x1="20.125" y1="68.974" x2="20.125" y2="66" gradientUnits="userSpaceOnUse"><stop offset="0" stop-color="#6050B0"/><stop offset="1" stop-color="#351C75"/></linearGradient><linearGradient id="paint7_linear" x1="142.386" y1="164.982" x2="142.386" y2="162.008" gradientUnits="userSpaceOnUse"><stop offset="0" stop-color="#6050B0"/><stop offset="1" stop-color="#351C75"/></linearGradient><linearGradient id="paint8_linear" x1="213.138" y1="40.499" x2="71.138" y2="155.499" gradientUnits="userSpaceOnUse"><stop offset="0" stop-color="#1E1B6D"/><stop offset="1" stop-color="#373582"/></linearGradient></defs></svg>
